X:5124
T:Pipe on the Hob \#2, The
O:england
M:6/8
L:1/8
R:jig
K:DMix
A|d^cd A2G|F2DDED|EDE cBc|E2DD2A|\
dcB cBA|BAG A2G|EDE cBc|E2DD2:|
e|f2d d^cd|f2d d^cd|edB c2d|ede age|\
f2d d^cd|f2d d^cd|ede age|ed^c d2e|\
f2d d^cd|f2d d^cd|edB c2d|ede age|\
fef gfg |afa g2e|fed eag|ed^c d2|
